assets/images/step-arrow-mobile.svg

<svg fill="none" height="74" viewBox="0 0 20 74" width="20" xmlns="http://www.w3.org/2000/svg"><path d="m.260678 71.8751c-.068954.4085.206247.7955.614681.8644l6.655811 1.1237c.40844.069.79544-.2062.86439-.6147.06895-.4084-.20625-.7954-.61468-.8644l-5.91628-.9988.99883-5.9163c.06895-.4084-.20625-.7954-.61469-.8643-.40843-.069-.79543.2062-.86438.6146zm6.887062-70.32959c7.19486 6.78854 11.13836 20.27879 10.43626 34.16659-.7011 13.8656-6.0212 27.8563-17.018432 35.6767l.869292 1.2224c11.50254-8.1796 16.93254-22.6889 17.64724-36.8233.7135-14.1122-3.2618-28.12195-10.90496-35.333412z" fill="#b55a18"/></svg>

<svg width="20" height="74" viewBox="0 0 20 74" fill="none" xmlns="http://www.w3.org/2000/svg">
<path d="M0.260678 71.8751C0.191724 72.2836 0.466925 72.6706 0.875359 72.7395L7.53117 73.8632C7.93961 73.9322 8.32661 73.657 8.39556 73.2485C8.46451 72.8401 8.18931 72.4531 7.78088 72.3841L1.8646 71.3853L2.86343 65.469C2.93238 65.0606 2.65718 64.6736 2.24874 64.6047C1.84031 64.5357 1.45331 64.8109 1.38436 65.2193L0.260678 71.8751ZM7.14774 1.54551C14.3426 8.33405 18.2861 21.8243 17.584 35.7121C16.8829 49.5777 11.5628 63.5684 0.565568 71.3888L1.43486 72.6112C12.9374 64.4316 18.3674 49.9223 19.0821 35.7879C19.7956 21.6757 15.8203 7.66595 8.17714 0.454488L7.14774 1.54551Z" fill="#B55A18"/>
</svg>
